assets/icons/english.svg

<?xml version="1.0" encoding="iso-8859-1"?>
<!-- Generator: Adobe Illustrator 19.0.0, SVG Export Plug-In . SVG Version: 6.00 Build 0)  -->
<svg version="1.1" id="Capa_1" xmlns="http://www.w3.org/2000/svg" xmlns:xlink="http://www.w3.org/1999/xlink" x="0px" y="0px"
	 viewBox="0 0 512.001 512.001" style="enable-background:new 0 0 512.001 512.001;" xml:space="preserve">
<g>
	<g>
		<g>
			<path d="M305.271,182.764c-7.789,0-15.578,2.797-15.578,9.387v67.9l-32.352-61.709c-7.59-14.579-11.783-15.578-22.967-15.578
				c-7.789,0-15.577,2.996-15.577,9.586v126.813c0,6.391,7.788,9.586,15.577,9.586s15.577-3.195,15.577-9.586v-67.9l37.944,69.099
				c3.795,6.99,10.186,8.388,17.375,8.388c7.788,0,15.576-3.195,15.576-9.586V192.15
				C320.846,185.561,313.058,182.764,305.271,182.764z"/>
			<path d="M195.834,209.924c5.991,0,9.387-6.39,9.387-13.779c0-6.391-2.797-13.381-9.387-13.381h-71.096
				c-6.79,0-13.58,3.195-13.58,9.586v126.814c0,6.391,6.79,9.586,13.58,9.586h71.096c6.59,0,9.387-6.99,9.387-13.381
				c0-7.388-3.396-13.779-9.387-13.779h-53.521v-33.95h29.956c6.591,0,9.386-6.39,9.386-11.782c0-6.391-3.395-12.183-9.386-12.183
				h-29.956v-33.751H195.834z"/>
			<path d="M438.142,256l71.924-151.419c2.943-6.196,2.506-13.469-1.159-19.267C505.241,79.516,498.859,76,492,76H20
				C8.954,76,0,84.954,0,96v320c0,11.046,8.954,20,20,20h472c6.859,0,13.241-3.516,16.906-9.314
				c3.665-5.798,4.103-13.07,1.159-19.267L438.142,256z M40,396V116h420.358l-62.424,131.419c-2.579,5.43-2.579,11.732,0,17.162
				L460.358,396H40z"/>
		</g>
	</g>
</g>
<g>
</g>
<g>
</g>
<g>
</g>
<g>
</g>
<g>
</g>
<g>
</g>
<g>
</g>
<g>
</g>
<g>
</g>
<g>
</g>
<g>
</g>
<g>
</g>
<g>
</g>
<g>
</g>
<g>
</g>
</svg>

<svg width="512" height="512" viewBox="0 0 512 512" fill="none" xmlns="http://www.w3.org/2000/svg">
<path d="M305.271 182.764C297.482 182.764 289.693 185.561 289.693 192.151V260.051L257.341 198.342C249.751 183.763 245.558 182.764 234.374 182.764C226.585 182.764 218.797 185.76 218.797 192.35V319.163C218.797 325.554 226.585 328.749 234.374 328.749C242.163 328.749 249.951 325.554 249.951 319.163V251.263L287.895 320.362C291.69 327.352 298.081 328.75 305.27 328.75C313.058 328.75 320.846 325.555 320.846 319.164V192.15C320.846 185.561 313.058 182.764 305.271 182.764Z" fill="white"/>
<path d="M195.834 209.924C201.825 209.924 205.221 203.534 205.221 196.145C205.221 189.754 202.424 182.764 195.834 182.764H124.738C117.948 182.764 111.158 185.959 111.158 192.35V319.164C111.158 325.555 117.948 328.75 124.738 328.75H195.834C202.424 328.75 205.221 321.76 205.221 315.369C205.221 307.981 201.825 301.59 195.834 301.59H142.313V267.64H172.269C178.86 267.64 181.655 261.25 181.655 255.858C181.655 249.467 178.26 243.675 172.269 243.675H142.313V209.924H195.834V209.924Z" fill="white"/>
<path d="M438.142 256L510.066 104.581C513.009 98.385 512.572 91.112 508.907 85.314C505.241 79.516 498.859 76 492 76H20C8.954 76 0 84.954 0 96V416C0 427.046 8.954 436 20 436H492C498.859 436 505.241 432.484 508.906 426.686C512.571 420.888 513.009 413.616 510.065 407.419L438.142 256ZM40 396V116H460.358L397.934 247.419C395.355 252.849 395.355 259.151 397.934 264.581L460.358 396H40Z" fill="white"/>
</svg>
